X:0115
T:Major Montgomerie's Quick Step.
N:This must be Hugh Montgomerie, 11th Earl of Eglinton;
N:he might well have written or adapted it himself.  It
N:sounds a bit like Dumbarton's Drums.
M:C
L:1/8
Q:1/2=72
I: :: ::
Z:Jack Campin * www.campin.me.uk * 2009
K:D
  F/E/ |D3F (A>B)AF|A2d2 d3 A|B>cd>e d/e/f ed|e2E2 E3
  F    |D3F (A>B)AF|A2d2 d3 A|Bcde   faef    |d2D2 D3:|
 (d/e/)|fedB ABdA  |B2d2 d3 F|G3 B   AFdF    |E2e2 e2
(de)   |fedf edce  |dcBA BAGF|EFGE   AGFE    |D2d2 d3:|
<end>
<start>
